resources/haticons/SVG/tesla.svg

<!-- Generated by IcoMoon.io -->
<svg version="1.1" xmlns="http://www.w3.org/2000/svg" width="24" height="24" viewBox="0 0 24 24">
<title>tesla</title>
<path fill="#c00" d="M12 5.362l2.475-3.026c0 0 4.245 0.090 8.471 2.054-1.082 1.636-3.231 2.438-3.231 2.438-0.146-1.439-1.154-1.79-4.354-1.79l-3.361 18.962-3.381-18.966c-3.18 0-4.188 0.354-4.335 1.792 0 0-2.146-0.795-3.229-2.43 4.225-1.965 8.47-2.056 8.47-2.056l2.475 3.022-0.004 0.002h0.004zM12 1.463c3.415-0.030 7.326 0.528 11.328 2.28 0.535-0.968 0.672-1.395 0.672-1.395-4.375-1.736-8.472-2.333-12-2.348-3.528 0.015-7.625 0.61-12 2.349 0 0 0.195 0.525 0.672 1.396 4.002-1.756 7.913-2.31 11.328-2.285z"></path>
</svg>

<svg xmlns="http://www.w3.org/2000/svg" width="24" height="24"><path fill="#c00" d="M12 5.362l2.475-3.026s4.245.09 8.471 2.054c-1.082 1.636-3.231 2.438-3.231 2.438-.146-1.439-1.154-1.79-4.354-1.79L12 24 8.619 5.034c-3.18 0-4.188.354-4.335 1.792 0 0-2.146-.795-3.229-2.43C5.28 2.431 9.525 2.34 9.525 2.34L12 5.362l-.004.002H12zm0-3.899c3.415-.03 7.326.528 11.328 2.28.535-.968.672-1.395.672-1.395C19.625.612 15.528.015 12 0 8.472.015 4.375.61 0 2.349c0 0 .195.525.672 1.396C4.674 1.989 8.585 1.435 12 1.46z"/></svg>
